public/assets/icon3.svg

<svg xmlns="http://www.w3.org/2000/svg" width="32" height="32" fill="#fff" xmlns:v="https://vecta.io/nano"><path d="M25.7 9.3l-7-7c-.2-.2-.4-.3-.7-.3H8c-1.1 0-2 .9-2 2v24c0 1.1.9 2 2 2h16c1.1 0 2-.9 2-2V10c0-.3-.1-.5-.3-.7zM18 4.4l5.6 5.6H18V4.4zM24 28H8V4h8v6c0 1.1.9 2 2 2h6v16zm-2-6H10v2h12v-2zm0-6H10v2h12v-2z"/></svg>

<svg width="32" height="32" viewBox="0 0 32 32" fill="none" xmlns="http://www.w3.org/2000/svg">
<path d="M25.7 9.3L18.7 2.3C18.5 2.1 18.3 2 18 2H8C6.9 2 6 2.9 6 4V28C6 29.1 6.9 30 8 30H24C25.1 30 26 29.1 26 28V10C26 9.7 25.9 9.5 25.7 9.3ZM18 4.4L23.6 10H18V4.4ZM24 28H8V4H16V10C16 11.1 16.9 12 18 12H24V28Z" fill="white"/>
<path d="M22 22H10V24H22V22Z" fill="white"/>
<path d="M22 16H10V18H22V16Z" fill="white"/>
</svg>
